public/images/icons/bde/social-icons/facebook.svg

<svg width="38" height="34" viewBox="0 0 38 34" fill="none" xmlns="http://www.w3.org/2000/svg">
<rect x="0.5" y="0.5" width="37" height="33" rx="7.5" fill="black" stroke="white"/>
<path d="M19.078 23.0597V33H26.0587V23.0597H31.526V17.2388H26.0587V16.8507C26.0587 14.8209 26.553 14.3731 28.4989 14.3731H31.5569V9H27.5414C23.2479 9 20.9004 9.77612 19.8502 11.8955C19.356 12.9403 19.078 14.3134 19.078 16.1642V17.2388H15.0625V23.0597H19.078Z" fill="white"/>
</svg>

<svg fill="none" viewBox="0 0 38 34"><rect width="37" height="33" x=".5" y=".5" fill="#000" stroke="#fff" rx="7.5"/><path fill="#fff" d="M19.078 23.06V33h6.98v-9.94h5.468v-5.821h-5.467v-.388c0-2.03.494-2.478 2.44-2.478h3.058V9H27.54c-4.293 0-6.64.776-7.69 2.896-.495 1.044-.773 2.417-.773 4.268v1.075h-4.015v5.82h4.015z"/></svg>
